X:1
T:F Major Jeremiah Ingalls, 1805
T:Isaac Watts, 1709 (Hymn 30, Book 2)                 66. 86. (S. M.)
T:Barnet
T:Transcribed from  Ingalls' Christian Harmony, 1805.
%%score [ 1 2 3 4 ]
L:1/8
Q:1/4=150
M:4/4
K:F
V:1 treble nm="Tr." snm="Tr."
V:2 treble nm="C." snm="C."
V:3 treble-8 nm="T." snm="T."
V:4 bass nm="B." snm="B."
V:1
"^1. Come, we that love the Lord,  And let our joys be known;                                                Join in a song with sweet accord,  And  thus  _______\n2. The men of grace have found  Glo–ry  be–gun  be–low;                                                 Celestial  fruits on earthly ground   From faith  _______\n3. Then  let  our songs  abound,  And  eve–ry tear be dry;                                               We're marching thro' Immanuel's ground  To  fai    –" A8 | %1
 A2 A2 A2 c2 | c6 c2 | A2 c2 d2 c2 | c6 z2 | z8 | z4 z2 A2 | c2 c2 c2 A2 | f2 c2 A2 F2 | c8- | %10
"^1.  _________   surround the throne.                              Join   in   a   song  with   sweet  accord,   And  thus  surround  the  throne.\n2.  _________   and  hope may grow.                               Ce –les–tial   fruits  on  earthly ground   From  faith  and hope may grow.\n3.   –      –     rer  worlds  on  high.                         We're  marching thro' Immanuel's ground    To      fai  –  rer worlds on high." c6 c2 | %11
 A2 A2 A4 | z4 z2 A2 | c2 c2 c2 B2 | A2 A2 A2 c2 | [Bf]6 G2 | !wedge!c2 !wedge!c2 c4- | c8 |] %18
V:2
"^1. Come, we that love the Lord,  And let our joys be known;                                                                             Join in a song with sweet accord, And\n2. The men of grace have found   Glo–ry  be–gun  be–low;                                                                               Celestial  fruits on earthly ground  From\n3. Then  let   our  songs  abound,  And  eve–ry tear be  dry;                                                                  We're marching thro' Immanuel's ground  To" F8 | %1
 F2 F2 F2 G2 | A6 G2 | A2 F2 E2 F2 | G6 z2 | z8 | z8 | z4 z2 C2 | F2 F2 F2 D2 | A2 F2 C2 F2 | %10
"^1.  thus ___________________________________________           sur – round the throne.                                           thus  surround  the  throne.\n2.  faith ___________________________________________           and  hope  may  grow.                                               faith  and  hope may  grow.\n3.  fai        –        –        –        –        –        –        –       rer   worlds on   high.                                               fai  – rer worlds   on   high." F8- | %11
 F8- | F6 A2 | A2 A2 A4 | z4 z2"^And""^From""^To" C2 | F6 G2 | !wedge!A2 !wedge!A2 A4- | A8 |] %18
V:3
"^1. Come, we that love the Lord, And let our joys be known;  Join in a song with sweet accord,  And thus  _______________   surround the throne.                       Join  in  a  song  with  sweet         ac –\n2. The men of grace have found   Glo–ry  be–gun  be–low;   Celestial fruits on earthlyground  From faith  _______________  and  hope may grow.                       Ce–les–tial fruits on  earth    –    ly\n3. Then  let  our songs  abound,  And eve–ry tear be  dry;  We're marching thro' Immanuel's ground  To fai     –        –      rer worlds on  high.                     We're marching thro' Im – ma   –  nuel's" c8 | %1
 A2 F2 d2 e2 | f6 c2 | A2 F2 B2 A2 | G6 A2 | c2 c2 c2 A2 | f2 c2 A2 F2 | c8- | c6 c2 | f2 f2 f4 | %10
 z4 z2"^1. Join   in    a    song  with  sweet          ac  –  cord,  And thus surround the throne,  And thus surround  the throne.\n2. Ce  –  les – tial  fruits  on  earth    –    ly  ground  From faith and hope may grow,  From faith and hope maygrow.\n3. We're marching thro' Im  – man – uel's  ground  To     fai–rer   worlds  on    high,  To   fai  –  rer worlds on  high." c2 | %11
 d2 d2 d2 c2 | d6 cd | e2 e2 e2 de | f2 f2 f2 c2 | d6 c2 | !wedge!f2 !wedge!f2 f4- | f8 |] %18
V:4
"^1. Come, we that love the Lord,  And let our joys be known;                      Join in a song with sweet accord,  And thus  __________________      sur –\n2. The men of grace have found   Glo–ry  be–gun  be–low;                         Celestial fruits on earthly ground  From faith  _________________     and \n3. Then  let   our  songs  abound,  And  eve–ry tear be  dry;               We're marching thro' Immanuel's ground To  fai      –           –         –    rer" F,8 | %1
 F,2 F,2 D,2 C,2 | F,6 F,2 | F,2 A,2 G,2 F,2 | C,6 z2 | z4 z2 C,2 | F,2 F,2 F,2 D,2 | %7
 A,2 F,2 C,2 F,2 | F,8- | F,6 D,2 | %10
"^1.  –round the throne.                  Join    in    a    song   with   sweet               ac    –   cord,             And  thus  surround  the  throne.\n2.  hope may grow.                        Ce  –   les–tial   fruits   on    earth       –      ly        ground           From   faith and hope may grow.\n3.  worlds  on  high.                      We're  marching  thro'  Im – man      –      uel's     ground           To       fai –  rer worlds  on   high.""^_________________________________\nEdited by B. C. Johnston, 2017.  Measure 13, Counter: last note changed from G to A." A,2 A,2 A,4 | %11
 z4 z2 F,2 | B,2 B,2 B,2 G,2 | %13
"^_________________________________\nEdited by B. C. Johnston, 2017.  Measure 13, Counter: last note changed from G to A." A,6 G,2 | %14
 F,6 F,2 | B,6 C2 | !wedge!F,2 !wedge!F,2 F,4- | F,8 |] %18

